public/assets/icons/edit.svg

<svg width="24" height="24" viewBox="0 0 24 24" fill="none" xmlns="http://www.w3.org/2000/svg">
<g clip-path="url(#clip0_1245_82)">
<path d="M3 17.4596V20.4996C3 20.7796 3.22 20.9996 3.5 20.9996H6.54C6.67 20.9996 6.8 20.9496 6.89 20.8496L17.81 9.93957L14.06 6.18957L3.15 17.0996C3.05 17.1996 3 17.3196 3 17.4596ZM20.71 7.03957C21.1 6.64957 21.1 6.01957 20.71 5.62957L18.37 3.28957C17.98 2.89957 17.35 2.89957 16.96 3.28957L15.13 5.11957L18.88 8.86957L20.71 7.03957V7.03957Z" fill="#4792E8"/>
</g>
<defs>
<clipPath id="clip0_1245_82">
<rect width="24" height="24" fill="white"/>
</clipPath>
</defs>
</svg>

<svg xmlns="http://www.w3.org/2000/svg" width="24" height="24" fill="none"><g clip-path="url(#a)"><path fill="#4792E8" d="M3 17.46v3.04c0 .28.22.5.5.5h3.04c.13 0 .26-.05.35-.15L17.81 9.94l-3.75-3.75L3.15 17.1q-.15.15-.15.36M20.71 7.04a.996.996 0 0 0 0-1.41l-2.34-2.34a.996.996 0 0 0-1.41 0l-1.83 1.83 3.75 3.75z"/></g><defs><clipPath id="a"><path fill="#fff" d="M0 0h24v24H0z"/></clipPath></defs></svg>
